austria/municipalities/70420.svg

<?xml version="1.0" encoding="UTF-8"?>
<!DOCTYPE svg PUBLIC "-//W3C//DTD SVG 1.1//EN" "http://www.w3.org/Graphics/SVG/1.1/DTD/svg11.dtd">
<svg xmlns="http://www.w3.org/2000/svg" version="1.1" width="166px" height="192px" style="shape-rendering:geometricPrecision; text-rendering:geometricPrecision; image-rendering:optimizeQuality; fill-rule:evenodd; clip-rule:evenodd" xmlns:xlink="http://www.w3.org/1999/xlink">
<g><path style="opacity:1" fill="#000000" d="M -0.5,-0.5 C 54.8333,-0.5 110.167,-0.5 165.5,-0.5C 165.5,39.5 165.5,79.5 165.5,119.5C 161.89,140.883 151.89,158.716 135.5,173C 130.672,176.581 125.672,179.915 120.5,183C 112.336,186.554 104.002,189.388 95.5,191.5C 86.8333,191.5 78.1667,191.5 69.5,191.5C 30.064,182.064 6.73062,157.397 -0.5,117.5C -0.5,78.1667 -0.5,38.8333 -0.5,-0.5 Z"/></g>
<g><path style="opacity:1" fill="#fefffe" d="M 82.5,3.5 C 95.5,3.5 108.5,3.5 121.5,3.5C 121.667,61.8343 121.5,120.168 121,178.5C 109.052,184.992 96.2183,187.992 82.5,187.5C 82.5,126.167 82.5,64.8333 82.5,3.5 Z"/></g>
<g><path style="opacity:1" fill="#cb0000" d="M 122.5,3.5 C 135.5,3.5 148.5,3.5 161.5,3.5C 161.667,43.1681 161.5,82.8347 161,122.5C 155.993,146.197 143.327,164.531 123,177.5C 122.5,119.501 122.333,61.501 122.5,3.5 Z"/></g>
<g><path style="opacity:1" fill="#f29104" d="M 30.5,60.5 C 30.5,61.8333 31.1667,62.5 32.5,62.5C 35.7203,64.7765 39.387,66.1098 43.5,66.5C 44.2621,67.6283 44.9288,68.7949 45.5,70C 40.0846,71.256 38.7513,74.256 41.5,79C 43.1341,79.4935 44.8008,79.6602 46.5,79.5C 46.2291,81.3797 46.8958,82.713 48.5,83.5C 49.2299,84.7124 50.2299,85.7124 51.5,86.5C 50.7542,87.7362 50.4208,89.0695 50.5,90.5C 54.5918,85.0012 55.9251,85.6679 54.5,92.5C 55.2679,91.7375 55.7679,90.7375 56,89.5C 56.49,90.7932 56.6567,92.1266 56.5,93.5C 57.2679,92.7375 57.7679,91.7375 58,90.5C 57.3536,100.125 56.8536,109.792 56.5,119.5C 55.8362,121.81 55.5029,124.31 55.5,127C 56.2369,136.856 56.7369,146.69 57,156.5C 54.9741,158.097 52.6408,159.097 50,159.5C 49.0546,159.095 48.3879,158.428 48,157.5C 47.9219,159.657 47.7552,161.657 47.5,163.5C 45.9309,162.286 45.0976,160.619 45,158.5C 38.9357,159.507 33.4357,158.007 28.5,154C 29.1631,140.782 28.1631,127.615 25.5,114.5C 26.3578,110.67 26.0244,107.003 24.5,103.5C 24.7947,105.735 24.4614,107.735 23.5,109.5C 22.3646,107.787 20.698,107.12 18.5,107.5C 17.6851,106.163 16.5185,105.163 15,104.5C 14.8997,93.8964 16.5663,83.563 20,73.5C 22.3603,70.6397 24.527,67.6397 26.5,64.5C 24.4898,54.7931 22.3231,45.1264 20,35.5C 18.9326,34.8095 17.7659,34.3095 16.5,34C 24.1312,32.0436 27.2979,27.2103 26,19.5C 21.2409,12.8794 16.5742,12.8794 12,19.5C 11.4322,24.7984 13.2655,26.1317 17.5,23.5C 18.3857,24.325 18.719,25.325 18.5,26.5C 13.2323,27.8609 10.5657,25.8609 10.5,20.5C 11.3845,15.5478 14.3845,13.2145 19.5,13.5C 26.8992,14.7479 29.7326,19.0812 28,26.5C 26.1051,29.7049 24.2717,32.8716 22.5,36C 24.2543,44.8504 26.0876,53.6838 28,62.5C 28.7083,61.6195 29.5416,60.9528 30.5,60.5 Z"/></g>
<g><path style="opacity:1" fill="#fe9900" d="M 53.5,13.5 C 54.675,13.281 55.675,13.6143 56.5,14.5C 60.6415,22.0669 60.1415,29.4003 55,36.5C 51.6132,32.9609 47.4466,31.6276 42.5,32.5C 42.4826,23.8892 46.1493,17.5559 53.5,13.5 Z"/></g>
<g><path style="opacity:1" fill="#000000" d="M 52.5,21.5 C 53.3063,22.8675 54.3063,24.2008 55.5,25.5C 55.0623,26.5063 54.3957,26.5063 53.5,25.5C 52.8333,26.5 52.1667,27.5 51.5,28.5C 50.4104,27.6086 50.4104,26.6086 51.5,25.5C 50.9747,24.8076 50.3081,24.3076 49.5,24C 51.1193,23.7645 52.1193,22.9311 52.5,21.5 Z"/></g>
<g><path style="opacity:1" fill="#fe9900" d="M 52.5,42.5 C 51.3263,43.5137 50.6596,44.847 50.5,46.5C 48.6854,47.6298 46.6854,48.2964 44.5,48.5C 44.1667,47.5 43.5,46.8333 42.5,46.5C 42.5,42.1667 42.5,37.8333 42.5,33.5C 46.9811,32.8799 50.6478,34.2132 53.5,37.5C 52.6906,39.0709 52.3573,40.7376 52.5,42.5 Z"/></g>
<g><path style="opacity:1" fill="#fe9900" d="M 42.5,46.5 C 41.9032,47.1386 41.0698,47.472 40,47.5C 38.3376,47.6125 37.1709,46.9458 36.5,45.5C 37.7257,42.0482 39.2257,38.7148 41,35.5C 41.2917,37.3261 41.125,39.1595 40.5,41C 40.7006,43.1114 41.3673,44.9448 42.5,46.5 Z"/></g>
<g><path style="opacity:1" fill="#000000" d="M 44.5,37.5 C 46.337,37.6395 46.6704,38.3061 45.5,39.5C 44.7025,39.0431 44.3691,38.3764 44.5,37.5 Z"/></g>
<g><path style="opacity:1" fill="#000000" d="M 49.5,38.5 C 50.2891,38.7828 50.9558,39.2828 51.5,40C 50.184,40.5281 49.5173,40.0281 49.5,38.5 Z"/></g>
<g><path style="opacity:1" fill="#fe9900" d="M 50.5,46.5 C 52.1042,45.713 52.7709,44.3797 52.5,42.5C 53.3149,41.5707 54.1482,40.5707 55,39.5C 55.6667,42.8333 55.6667,46.1667 55,49.5C 53.4931,50.5348 51.9931,50.3681 50.5,49C 49.4019,48.2303 49.4019,47.397 50.5,46.5 Z"/></g>
<g><path style="opacity:1" fill="#000000" d="M 52.5,42.5 C 52.7709,44.3797 52.1042,45.713 50.5,46.5C 50.6596,44.847 51.3263,43.5137 52.5,42.5 Z"/></g>
<g><path style="opacity:1" fill="#000000" d="M 44.5,44.5 C 45.4971,43.2875 46.4971,43.4542 47.5,45C 46.4232,45.4696 45.4232,45.3029 44.5,44.5 Z"/></g>
<g><path style="opacity:1" fill="#fe9900" d="M 44.5,48.5 C 50.5351,50.0122 55.0351,53.6788 58,59.5C 58.49,60.7932 58.6567,62.1266 58.5,63.5C 56.901,63.2322 55.5676,63.5655 54.5,64.5C 53.1806,63.1032 51.5139,62.4365 49.5,62.5C 46.9945,63.643 44.3278,64.3097 41.5,64.5C 38.4175,64.1205 35.4175,63.4538 32.5,62.5C 32.1667,61.5 31.5,60.8333 30.5,60.5C 34.2781,55.383 38.9448,51.383 44.5,48.5 Z"/></g>
<g><path style="opacity:1" fill="#000000" d="M 30.5,60.5 C 31.5,60.8333 32.1667,61.5 32.5,62.5C 31.1667,62.5 30.5,61.8333 30.5,60.5 Z"/></g>
<g><path style="opacity:1" fill="#fe9900" d="M 47.5,63.5 C 52.3276,63.3852 53.6609,65.5519 51.5,70C 45.7377,70.4178 44.4044,68.2511 47.5,63.5 Z"/></g>
<g><path style="opacity:1" fill="#fe9900" d="M 54.5,64.5 C 56.4672,64.7394 58.3005,64.4061 60,63.5C 62.5658,70.0117 64.2324,76.6783 65,83.5C 62.056,82.2774 59.556,80.4441 57.5,78C 59.5227,73.661 58.1894,70.8276 53.5,69.5C 54.3094,67.9291 54.6427,66.2624 54.5,64.5 Z"/></g>
<g><path style="opacity:1" fill="#000000" d="M 24.5,83.5 C 27.8767,81.6106 30.21,78.7773 31.5,75C 29.2487,75.2068 26.9154,75.3735 24.5,75.5C 26.0133,73.4839 26.8466,71.1506 27,68.5C 26.7913,72.4592 28.6246,74.1258 32.5,73.5C 32.6641,76.1873 32.4974,78.854 32,81.5C 31.6667,80.8333 31.3333,80.1667 31,79.5C 29.6884,82.2385 27.5217,83.5718 24.5,83.5 Z"/></g>
<g><path style="opacity:1" fill="#fe9900" d="M 42.5,71.5 C 48.0159,71.4734 49.3492,73.64 46.5,78C 41.5705,78.427 40.2372,76.2604 42.5,71.5 Z"/></g>
<g><path style="opacity:1" fill="#fe9900" d="M 51.5,71.5 C 55.734,71.0616 57.4006,72.7283 56.5,76.5C 54.5331,75.3184 53.1997,75.9851 52.5,78.5C 50.2395,76.5165 49.9061,74.1831 51.5,71.5 Z"/></g>
<g><path style="opacity:1" fill="#000000" d="M 24.5,75.5 C 24.5,76.8333 23.8333,77.5 22.5,77.5C 22.8333,76.5 23.5,75.8333 24.5,75.5 Z"/></g>
<g><path style="opacity:1" fill="#000000" d="M 22.5,77.5 C 22.4827,79.0281 21.816,79.5281 20.5,79C 21.0442,78.2828 21.7109,77.7828 22.5,77.5 Z"/></g>
<g><path style="opacity:1" fill="#fe9900" d="M 48.5,77.5 C 51.1368,79.1538 50.8034,79.6538 47.5,79C 48.056,78.6174 48.3893,78.1174 48.5,77.5 Z"/></g>
<g><path style="opacity:1" fill="#fe9900" d="M 48.5,83.5 C 48.5858,82.5041 48.2524,81.6708 47.5,81C 49.5675,80.3131 51.5675,80.4798 53.5,81.5C 54.2811,80.2713 54.7811,78.938 55,77.5C 57.8103,79.4561 59.3103,82.1228 59.5,85.5C 55.6331,85.7583 51.9664,85.0916 48.5,83.5 Z"/></g>
<g><path style="opacity:1" fill="#000000" d="M 24.5,83.5 C 23.4324,84.4345 22.099,84.7678 20.5,84.5C 21.4855,88.4432 22.1522,92.4432 22.5,96.5C 19.9625,91.9052 19.1291,86.9052 20,81.5C 21.049,83.1066 22.549,83.7733 24.5,83.5 Z"/></g>
<g><path style="opacity:1" fill="#fe9900" d="M 61.5,83.5 C 63.0174,83.5106 64.1841,84.1772 65,85.5C 68.4285,89.8571 70.9285,94.6905 72.5,100C 69,102.167 65.5,104.333 62,106.5C 61.5003,98.8406 61.3336,91.1739 61.5,83.5 Z"/></g>
<g><path style="opacity:1" fill="#fe9900" d="M 68.5,115.5 C 68.477,117.927 67.977,120.26 67,122.5C 63.806,129.083 60.806,135.75 58,142.5C 56.9311,134.869 56.4311,127.202 56.5,119.5C 58.0818,108.695 59.2485,97.6948 60,86.5C 60.3333,94.5 60.6667,102.5 61,110.5C 62.755,113.294 65.255,114.96 68.5,115.5 Z"/></g>
<g><path style="opacity:1" fill="#000000" d="M 50.5,90.5 C 49.7367,94.3696 47.7367,97.3696 44.5,99.5C 46.2549,96.3197 48.2549,93.3197 50.5,90.5 Z"/></g>
<g><path style="opacity:1" fill="#000000" d="M 54.5,92.5 C 54.5979,94.5529 53.9313,96.2196 52.5,97.5C 52.4021,95.4471 53.0687,93.7804 54.5,92.5 Z"/></g>
<g><path style="opacity:1" fill="#000000" d="M 56.5,93.5 C 56.8893,96.5533 56.2227,99.22 54.5,101.5C 54.5651,98.5718 55.2318,95.9052 56.5,93.5 Z"/></g>
<g><path style="opacity:1" fill="#000000" d="M 22.5,96.5 C 23.9238,98.5145 24.5905,100.848 24.5,103.5C 22.8372,101.562 22.1706,99.2282 22.5,96.5 Z"/></g>
<g><path style="opacity:1" fill="#000000" d="M 52.5,97.5 C 52.3404,99.153 51.6737,100.486 50.5,101.5C 50.2291,99.6203 50.8958,98.287 52.5,97.5 Z"/></g>
<g><path style="opacity:1" fill="#000000" d="M 44.5,99.5 C 44.1667,100.5 43.5,101.167 42.5,101.5C 42.5,100.167 43.1667,99.5 44.5,99.5 Z"/></g>
<g><path style="opacity:1" fill="#000000" d="M 42.5,101.5 C 42.2172,102.289 41.7172,102.956 41,103.5C 40.4719,102.184 40.9719,101.517 42.5,101.5 Z"/></g>
<g><path style="opacity:1" fill="#000000" d="M 50.5,101.5 C 50.4894,103.686 49.4894,104.519 47.5,104C 48.3734,102.955 49.3734,102.122 50.5,101.5 Z"/></g>
<g><path style="opacity:1" fill="#000000" d="M 54.5,101.5 C 54.8294,104.228 54.1628,106.562 52.5,108.5C 52.4095,105.848 53.0762,103.515 54.5,101.5 Z"/></g>
<g><path style="opacity:1" fill="#fe9900" d="M 68.5,115.5 C 66.0365,113.539 63.7032,111.372 61.5,109C 62.8168,107.341 64.4835,106.174 66.5,105.5C 67.6534,108.446 68.6534,111.446 69.5,114.5C 69.3764,115.107 69.0431,115.44 68.5,115.5 Z"/></g>
<g><path style="opacity:1" fill="#000000" d="M 18.5,107.5 C 20.698,107.12 22.3646,107.787 23.5,109.5C 21.597,109.204 19.9303,108.537 18.5,107.5 Z"/></g>
<g><path style="opacity:1" fill="#000000" d="M 52.5,108.5 C 52.7406,110.898 52.0739,112.898 50.5,114.5C 50.2594,112.102 50.9261,110.102 52.5,108.5 Z"/></g>
<g><path style="opacity:1" fill="#000000" d="M 50.5,114.5 C 50.7406,116.898 50.0739,118.898 48.5,120.5C 48.2594,118.102 48.9261,116.102 50.5,114.5 Z"/></g>
<g><path style="opacity:1" fill="#fc9700" d="M 18.5,107.5 C 19.9303,108.537 21.597,109.204 23.5,109.5C 25.0171,111.936 24.6838,114.102 22.5,116C 23.6667,116.5 24.5,117.333 25,118.5C 26.2625,123.787 26.5958,129.12 26,134.5C 22.5709,130.228 19.7376,125.562 17.5,120.5C 18.9079,119.757 20.2412,118.923 21.5,118C 20.451,117.508 19.451,117.674 18.5,118.5C 17.1923,114.685 17.1923,111.019 18.5,107.5 Z"/></g>
<g><path style="opacity:1" fill="#fefffe" d="M -0.5,117.5 C 6.73062,157.397 30.064,182.064 69.5,191.5C 46.1667,191.5 22.8333,191.5 -0.5,191.5C -0.5,166.833 -0.5,142.167 -0.5,117.5 Z"/></g>
<g><path style="opacity:1" fill="#fefffe" d="M 165.5,119.5 C 165.5,143.5 165.5,167.5 165.5,191.5C 142.167,191.5 118.833,191.5 95.5,191.5C 104.002,189.388 112.336,186.554 120.5,183C 125.672,179.915 130.672,176.581 135.5,173C 151.89,158.716 161.89,140.883 165.5,119.5 Z"/></g>
<g><path style="opacity:1" fill="#000000" d="M 48.5,120.5 C 48.7529,122.827 48.0863,124.827 46.5,126.5C 46.1667,126.333 45.8333,126.167 45.5,126C 46.2291,123.942 47.2291,122.109 48.5,120.5 Z"/></g>
</svg>

<svg xmlns="http://www.w3.org/2000/svg" width="166" height="192" style="shape-rendering:geometricPrecision;text-rendering:geometricPrecision;image-rendering:optimizeQuality;fill-rule:evenodd;clip-rule:evenodd"><path style="opacity:1" d="M-.5-.5h166v120c-3.61 21.383-13.61 39.216-30 53.5a179.617 179.617 0 0 1-15 10 157.946 157.946 0 0 1-25 8.5h-26c-39.436-9.436-62.77-34.103-70-74V-.5z"/><path style="opacity:1" fill="#fefffe" d="M82.5 3.5h39c.167 58.334 0 116.668-.5 175-11.948 6.492-24.782 9.492-38.5 9V3.5z"/><path style="opacity:1" fill="#cb0000" d="M122.5 3.5h39c.167 39.668 0 79.335-.5 119-5.007 23.697-17.673 42.031-38 55-.5-57.999-.667-115.999-.5-174z"/><path style="opacity:1" fill="#f29104" d="M30.5 60.5c0 1.333.667 2 2 2 3.22 2.276 6.887 3.61 11 4a26.61 26.61 0 0 1 2 3.5c-5.415 1.256-6.749 4.256-4 9 1.634.493 3.3.66 5 .5-.27 1.88.396 3.213 2 4 .73 1.212 1.73 2.212 3 3a6.845 6.845 0 0 0-1 4c4.092-5.499 5.425-4.832 4 2 .768-.763 1.268-1.763 1.5-3a8.434 8.434 0 0 1 .5 4c.768-.763 1.268-1.763 1.5-3a947.43 947.43 0 0 0-1.5 29c-.664 2.31-.997 4.81-1 7.5a617.76 617.76 0 0 1 1.5 29.5c-2.026 1.597-4.36 2.597-7 3-.945-.405-1.612-1.072-2-2a59.608 59.608 0 0 1-.5 6c-1.57-1.214-2.402-2.881-2.5-5-6.064 1.007-11.564-.493-16.5-4.5.663-13.218-.337-26.385-3-39.5.858-3.83.524-7.497-1-11 .295 2.235-.039 4.235-1 6-1.135-1.713-2.802-2.38-5-2-.815-1.337-1.982-2.337-3.5-3-.1-10.604 1.566-20.937 5-31a86.117 86.117 0 0 0 6.5-9 911.762 911.762 0 0 0-6.5-29 11.362 11.362 0 0 0-3.5-1.5c7.631-1.956 10.798-6.79 9.5-14.5-4.76-6.62-9.426-6.62-14 0-.568 5.298 1.265 6.632 5.5 4 .886.825 1.219 1.825 1 3-5.268 1.36-7.934-.64-8-6 .884-4.952 3.884-7.286 9-7 7.4 1.248 10.233 5.581 8.5 13a588.135 588.135 0 0 0-5.5 9.5c1.754 8.85 3.588 17.684 5.5 26.5.708-.88 1.542-1.547 2.5-2z"/><path style="opacity:1" fill="#fe9900" d="M53.5 13.5c1.175-.219 2.175.114 3 1 4.142 7.567 3.642 14.9-1.5 22-3.387-3.54-7.553-4.872-12.5-4-.017-8.61 3.65-14.944 11-19z"/><path style="opacity:1" d="M52.5 21.5c.806 1.367 1.806 2.7 3 4-.438 1.006-1.104 1.006-2 0l-2 3c-1.09-.891-1.09-1.891 0-3a4.452 4.452 0 0 0-2-1.5c1.62-.235 2.62-1.069 3-2.5z"/><path style="opacity:1" fill="#fe9900" d="M52.5 42.5c-1.174 1.014-1.84 2.347-2 4-1.815 1.13-3.815 1.796-6 2-.333-1-1-1.667-2-2v-13c4.481-.62 8.148.713 11 4a9.106 9.106 0 0 0-1 5zM42.5 46.5c-.597.639-1.43.972-2.5 1-1.662.112-2.83-.554-3.5-2a67.193 67.193 0 0 1 4.5-10c.292 1.826.125 3.66-.5 5.5.2 2.111.867 3.945 2 5.5z"/><path style="opacity:1" d="M44.5 37.5c1.837.14 2.17.806 1 2-.797-.457-1.13-1.124-1-2zM49.5 38.5c.79.283 1.456.783 2 1.5-1.316.528-1.983.028-2-1.5z"/><path style="opacity:1" fill="#fe9900" d="M50.5 46.5c1.604-.787 2.27-2.12 2-4 .815-.93 1.648-1.93 2.5-3a25.249 25.249 0 0 1 0 10c-1.507 1.035-3.007.868-4.5-.5-1.098-.77-1.098-1.603 0-2.5z"/><path style="opacity:1" d="M52.5 42.5c.27 1.88-.396 3.213-2 4 .16-1.653.826-2.986 2-4zM44.5 44.5c.997-1.212 1.997-1.046 3 .5-1.077.47-2.077.303-3-.5z"/><path style="opacity:1" fill="#fe9900" d="M44.5 48.5c6.035 1.512 10.535 5.179 13.5 11a8.434 8.434 0 0 1 .5 4c-1.599-.268-2.932.066-4 1-1.32-1.397-2.986-2.063-5-2-2.505 1.143-5.172 1.81-8 2a47.617 47.617 0 0 1-9-2c-.333-1-1-1.667-2-2 3.778-5.117 8.445-9.117 14-12z"/><path style="opacity:1" d="M30.5 60.5c1 .333 1.667 1 2 2-1.333 0-2-.667-2-2z"/><path style="opacity:1" fill="#fe9900" d="M47.5 63.5c4.828-.115 6.16 2.052 4 6.5-5.762.418-7.096-1.749-4-6.5zM54.5 64.5c1.967.24 3.8-.094 5.5-1 2.566 6.512 4.232 13.178 5 20a19.376 19.376 0 0 1-7.5-5.5c2.023-4.339.69-7.172-4-8.5a9.106 9.106 0 0 0 1-5z"/><path style="opacity:1" d="M24.5 83.5c3.377-1.89 5.71-4.723 7-8.5-2.251.207-4.585.374-7 .5 1.513-2.016 2.347-4.35 2.5-7-.209 3.96 1.625 5.626 5.5 5a32.437 32.437 0 0 1-.5 8l-1-2c-1.312 2.739-3.478 4.072-6.5 4z"/><path style="opacity:1" fill="#fe9900" d="M42.5 71.5c5.516-.027 6.85 2.14 4 6.5-4.93.427-6.263-1.74-4-6.5zM51.5 71.5c4.234-.438 5.9 1.228 5 5-1.967-1.182-3.3-.515-4 2-2.26-1.984-2.594-4.317-1-7z"/><path style="opacity:1" d="M24.5 75.5c0 1.333-.667 2-2 2 .333-1 1-1.667 2-2zM22.5 77.5c-.017 1.528-.684 2.028-2 1.5.544-.717 1.21-1.217 2-1.5z"/><path style="opacity:1" fill="#fe9900" d="M48.5 77.5c2.637 1.654 2.303 2.154-1 1.5.556-.383.89-.883 1-1.5z"/><path style="opacity:1" fill="#fe9900" d="M48.5 83.5c.086-.996-.248-1.83-1-2.5 2.068-.687 4.068-.52 6 .5a10.253 10.253 0 0 0 1.5-4c2.81 1.956 4.31 4.623 4.5 8-3.867.258-7.534-.408-11-2z"/><path style="opacity:1" d="M24.5 83.5c-1.068.934-2.401 1.268-4 1a76.288 76.288 0 0 1 2 12c-2.538-4.595-3.37-9.595-2.5-15 1.049 1.607 2.549 2.273 4.5 2z"/><path style="opacity:1" fill="#fe9900" d="M61.5 83.5c1.517.01 2.684.677 3.5 2a42.957 42.957 0 0 1 7.5 14.5L62 106.5c-.5-7.66-.666-15.326-.5-23z"/><path style="opacity:1" fill="#fe9900" d="M68.5 115.5a17.758 17.758 0 0 1-1.5 7 379.695 379.695 0 0 0-9 20 155.549 155.549 0 0 1-1.5-23 423.645 423.645 0 0 0 3.5-33l1 24c1.755 2.794 4.255 4.46 7.5 5z"/><path style="opacity:1" d="M50.5 90.5c-.763 3.87-2.763 6.87-6 9a64.27 64.27 0 0 1 6-9zM54.5 92.5c.098 2.053-.569 3.72-2 5-.098-2.053.569-3.72 2-5zM56.5 93.5c.39 3.053-.277 5.72-2 8 .065-2.928.732-5.595 2-8zM22.5 96.5c1.424 2.014 2.09 4.348 2 7-1.663-1.938-2.33-4.272-2-7zM52.5 97.5c-.16 1.653-.826 2.986-2 4-.27-1.88.396-3.213 2-4zM44.5 99.5c-.333 1-1 1.667-2 2 0-1.333.667-2 2-2zM42.5 101.5c-.283.789-.783 1.456-1.5 2-.528-1.316-.028-1.983 1.5-2zM50.5 101.5c-.01 2.186-1.01 3.019-3 2.5a10.526 10.526 0 0 1 3-2.5zM54.5 101.5c.33 2.728-.337 5.062-2 7-.09-2.652.576-4.985 2-7z"/><path style="opacity:1" fill="#fe9900" d="M68.5 115.5a63.68 63.68 0 0 1-7-6.5 10.504 10.504 0 0 1 5-3.5 92.31 92.31 0 0 1 3 9c-.124.607-.457.94-1 1z"/><path style="opacity:1" d="M18.5 107.5c2.198-.38 3.865.287 5 2-1.903-.296-3.57-.963-5-2zM52.5 108.5c.24 2.398-.426 4.398-2 6-.24-2.398.426-4.398 2-6zM50.5 114.5c.24 2.398-.426 4.398-2 6-.24-2.398.426-4.398 2-6z"/><path style="opacity:1" fill="#fc9700" d="M18.5 107.5c1.43 1.037 3.097 1.704 5 2 1.517 2.436 1.184 4.602-1 6.5 1.167.5 2 1.333 2.5 2.5a46.394 46.394 0 0 1 1 16 62.863 62.863 0 0 1-8.5-14 32.058 32.058 0 0 0 4-2.5c-1.049-.492-2.049-.326-3 .5-1.308-3.815-1.308-7.481 0-11z"/><path style="opacity:1" fill="#fefffe" d="M-.5 117.5c7.23 39.897 30.564 64.564 70 74h-70v-74zM165.5 119.5v72h-70a157.946 157.946 0 0 0 25-8.5 179.617 179.617 0 0 0 15-10c16.39-14.284 26.39-32.117 30-53.5z"/><path style="opacity:1" d="M48.5 120.5c.253 2.327-.414 4.327-2 6l-1-.5c.73-2.058 1.73-3.891 3-5.5z"/></svg>
